X:1
T:New Five Cents [2]
N:From the playing of Max Collins (1916-2001j, Pottawatomie County, Oklahoma),
N: from a 1975 field recording by Gary Stanton and Tom Carter. A number of well-
N:regarded fiddlers were members of the family, including W.S., Willie, and
N:Max's older brother, Earl Collins.
M:C|
L:1/8
R:Reel
D: https://www.slippery-hill.com/recording/new-five-cents-1
Z:Transcribed by Andrew Kuntz
K:D
+slide+[A2f2]-|[A2f2]a2g2f2|+slide+[df][d2f2] -[d2f2]+slide+[A2f2]-|[A2f2]a2g2 f2|[e3e3][ee] [e3e3][Aa]-|
[Aa][Aa] [A2a2]+slide+[c3e3]B|A2 +slide+[c2e2]-[c2e2]cB|A2A2 B2c2|[d3f3][df][d2f2]:|
|:+slide+[d2f2]-|[df][df] [d2f2] +slide+[d3f3][df]|[d2f2][d4f4][d2f2]-|[d2f2][d2f2][d2g2][d2f2]|[e3e3][ee] [e2e2][c2e2]-|
[ce][de][e2e2][c3e3]B|[A2e2]AB [c2e2] cB | A2cA B2c2|[d3f3][df][d2f2]:|

